www/assets/icons/turn_slight_left.svg

<svg xmlns="http://www.w3.org/2000/svg" width="24" height="24" viewBox="0 0 24 24" fill='currentColor'><path d="M13.16 4H7.5v5.66h2V7.41l5 5V20h2v-7.58c0-.53-.21-1.04-.59-1.41l-5-5h2.25z"/></svg>

<svg width="24" height="24" viewBox="0 0 24 24" xmlns="http://www.w3.org/2000/svg" fill='currentColor'><path d="M13.16 4H7.5V9.66H9.5V7.41L14.5 12.41V20H16.5V12.42C16.5 11.89 16.29 11.38 15.91 11.01L10.91 6.01H13.16V4Z"/></svg>
